X:236
T:score39
L:1/8
Q:1/4=96
M:2/4
I:linebreak $
K:C
 .C.C .E.E | .G.G E2 | .F.F .D.D | .B,.B, G,2 |$ .C.C .E.E | .G.G E2 | .c.c .^F.F | G2 G, z |] %8
